X:1
T: Good Night
C:
R:Jig
Q:180
K:Em
M:6/8
L:1/16
G4E2 G4E2|G4A2 B2G2E2|G4E2 G4E2|F2A2d2 A2F2D2|G4E2 G4E2|G4A2 B4c2|d2e2d2 B2A2G2|F2A2d2 A2F2D2|
G4E2 G4E2|G4A2 B2G2E2|G4E2 G4E2|F2A2d2 A2F2D2|G4E2 G4E2|G4A2 B4c2|d2e2d2 B2A2G2|F2A2d2 A2F2D2|
g2d2c2 B4A2|G4A2 B2G2E2|g2d2c2 B2A2G2|F2A2d2 A2F2D2|g2d2c2 B4A2|G4A2 B4c2|d2e2d2 B2A2G2|F2A2d2 A2F2D2|
g2d2c2 B4A2|G4A2 B2G2E2|g2d2c2 B2A2G2|F2A2d2 A2F2D2|g2d2c2 B4A2|G4A2 B4c2|d2e2d2 B2A2G2|F2A2d2 A2F2D2||
